shader_type spatial;

uniform sampler2D displacement_map;
uniform sampler2D color_noise;

void vertex() {
	// Called for every vertex the material is visible on.
}

void fragment() {
	// Called for every pixel the material is visible on.
}
